X:1
T:Solve Deus
T:Daniel Friderici
T:Source : Bicinia sacra---Rostock---J.Richelius---1642. Editor : André Vierendeels (05/07/17).
T:Notes : Original clefs : G2, G2 Editorial accidentals above the staff
T:Solve Deus
T:©
T:©
T:©
C:Daniel Friderici
Z:©
%%score [ 1 2 ]
L:1/8
Q:1/4=120
M:2/2
K:F
V:1 treble nm="Soprano 1" snm="S 1"
V:2 treble nm="Soprano 2" snm="S 2"
V:1
 c2 c2 d2 c2 | B2 A2 G4 | F4 F2 G2 | A2 B2 c4 | A4 c2 d2 | e2 f2 g4 | e4 g2 f2 | e2 d2 c4 | %8
w: Sol- ve, sol- ve,|sol- ve De-|us, sol- ve|De- us lin-|guam, sol- ve|De- us lin-|guam, sol- ve|De- us lin-|
 A4 c2 B2 | A2 G2 F4 | c4 z2 c2 | d3 d c2 B2- | BB A2 G4 | A8 :: AAAA BG A2 | z8 | cccc dB c2 | %17
w: guam, sol- ve|De- us lin-|guam, quam|Spi- ri- tus ob-|* si- det a-|ter:|Ut ti- bi pro me- ri- tis,||ut ti- bi pro me- ri- tis,|
 z8 | eeee fd e2 | z8 | gggg af g2 | z8 | a2 aa g2 g2 | f3 e/d/ e2 e2 | d2 dd c2 c2 | %25
w: |ut ti- bi pro me- ri- tis,||ut ti- bi pro me- ri- tis,||car- mi- na gra- ta|ca- * * * nam,|car- mi- na gra- ta|
 B3 A/G/ A2 A2 | f2 ff e2 e2 | d3 c/B/ c2 c2 | B2 BB A2 A2 | G3 F/E/ F2 F2 | B3 A/G/ AGAB | %31
w: ca- * * * nam,|car- mi- na gra- ta|ca- * * * nam,|car- mi- na gra- ta|ca- * * * nam,|ca- * * * * * *|
 cBcd edef | gfga gagf | ec f3 e/d/ e2 | f8 :| %35
w: |||nam.|
V:2
 A2 A2 B2 A2 | d2 c2 B4 | A8 | F2 G2 A2 B2 | c4 A4 | c2 d2 e2 f2 | g4 e4 | g2 f2 e2 d2 | c4 A4 | %9
w: Sol- ve, sol- ve,|sol- ve De-|us,|sol- ve De- us|lin- guam,|sol- ve De- us|lin- guam,|sol- ve De- us|lin- guam,|
 c2 B2 A2 G2 | F4 c2 A2 | B3 B A2 G2- | GG F2 G4 | F8 :: z8 | AAAA BG A2 | z8 | cccc dB c2 | z8 | %19
w: sol- ve De- us|lin- guam, quam|Spi- ri- tus ob-|* si- det a-|ter:||ut ti- bi pro me- ri- tis,||ut ti- bi pro- me- ri- tis,||
 eeee fd e2 | z8 | gggg af g2 | z8 | a2 aa g2 g2 | f3 e/d/ e2 e2 | d2 dd c2 c2 | B3 A/G/ A2 A2 | %27
w: ut ti- bi pro- me- ri- tis,||ut ti- bi pro me- ri- tis,||car- mi- na gra- ta|ca- * * * nam,|car- mi- na gra- ta|ca- * * * nam,|
 f2 ff e2 e2 | d3 c/B/ c2 c2 | B2 BB A2 A2 | G3 F/E/ F2 F2 | AGAB cBcd | edef gfga | g2 f2 g4 | %34
w: car- mi- na gra- ta|ca- * * * nam,|car- mi- na gra- ta|ca- * * * nam,|ca- * * * * * * *|||
 f8 :| %35
w: nam.|

